Catalina-light/actions/16/starred-symbolic.svg

<?xml version="1.0" encoding="UTF-8" standalone="no"?>
<svg
   xmlns:dc="http://purl.org/dc/elements/1.1/"
   xmlns:cc="http://creativecommons.org/ns#"
   xmlns:rdf="http://www.w3.org/1999/02/22-rdf-syntax-ns#"
   xmlns:svg="http://www.w3.org/2000/svg"
   xmlns="http://www.w3.org/2000/svg"
   xmlns:sodipodi="http://sodipodi.sourceforge.net/DTD/sodipodi-0.dtd"
   xmlns:inkscape="http://www.inkscape.org/namespaces/inkscape"
   viewBox="0 0 16 16"
   id="svg2"
   version="1.1"
   inkscape:version="0.91 r13725"
   sodipodi:docname="starred-symbolic.svg">
  <metadata
     id="metadata10">
    <rdf:RDF>
      <cc:Work
         rdf:about="">
        <dc:format>image/svg+xml</dc:format>
        <dc:type
           rdf:resource="http://purl.org/dc/dcmitype/StillImage" />
      </cc:Work>
    </rdf:RDF>
  </metadata>
  <sodipodi:namedview
     pagecolor="#ffffff"
     bordercolor="#666666"
     borderopacity="1"
     objecttolerance="10"
     gridtolerance="10"
     guidetolerance="10"
     inkscape:pageopacity="0"
     inkscape:pageshadow="2"
     inkscape:window-width="640"
     inkscape:window-height="480"
     id="namedview8"
     showgrid="false"
     inkscape:zoom="41.1875"
     inkscape:cx="3.6783005"
     inkscape:cy="8"
     inkscape:current-layer="svg2" />
  <defs
     id="defs3051">
    <style
       type="text/css"
       id="current-color-scheme">
      .ColorScheme-Text {
        color:#bebebe;
      }
      </style>
  </defs>
  <path
     style="color:#bebebe;fill:currentColor;fill-opacity:1;stroke:none"
     class="ColorScheme-Text"
     d="M 14,6.71276 C 14,6.5348429 13.865456,6.42428 13.596014,6.3810029 L 9.9759826,5.8545971 8.3533994,2.5733171 C 8.2621396,2.3761914 8.1442365,2.2776714 8.0000442,2.2776714 c -0.1441922,0 -0.2620068,0.09852 -0.3533551,0.2956457 L 6.0240173,5.8545971 2.4038091,6.3810029 C 2.1346325,6.42428 2,6.5348429 2,6.71276 2,6.8137486 2.060102,6.92918 2.1803067,7.0589429 L 4.8053316,9.611823 4.1851898,13.217609 c -0.00965,0.06737 -0.014428,0.115508 -0.014428,0.144274 0,0.100997 0.025227,0.18624 0.075681,0.25608 0.050454,0.06977 0.126135,0.104537 0.2271315,0.104537 0.086569,0 0.1826967,-0.02871 0.2884731,-0.08648 L 7.9999558,11.933948 11.23813,13.63602 c 0.101085,0.05769 0.197213,0.08648 0.288385,0.08648 0.09639,0 0.169596,-0.03471 0.22005,-0.104537 0.05037,-0.06977 0.07559,-0.155083 0.07559,-0.25608 0,-0.06249 -0.0024,-0.110554 -0.0073,-0.144274 L 11.194625,9.611823 13.812392,7.0589429 C 13.937567,6.9339543 13.999971,6.8185314 13.999971,6.71276 l 0,0 z"
     id="path6"
     inkscape:connector-curvature="0" />
</svg>

<svg version="1.1" viewBox="0 0 16 16" xmlns="http://www.w3.org/2000/svg">
<defs>
<style id="current-color-scheme" type="text/css">.ColorScheme-Text {
        color:#363636;
      }</style>
</defs>
<path class="ColorScheme-Text" d="m14 6.7128c0-0.17792-0.13454-0.28848-0.40399-0.33176l-3.62-0.52641-1.6226-3.2813c-0.09126-0.19713-0.20916-0.29565-0.35336-0.29565-0.14419 0-0.26201 0.09852-0.35336 0.29565l-1.6227 3.2813-3.6202 0.52641c-0.26918 0.043277-0.40381 0.15384-0.40381 0.33176 0 0.10099 0.060102 0.21642 0.18031 0.34618l2.625 2.5529-0.62014 3.6058c-0.00965 0.06737-0.014428 0.11551-0.014428 0.14427 0 0.101 0.025227 0.18624 0.075681 0.25608 0.050454 0.06977 0.12614 0.10454 0.22713 0.10454 0.086569 0 0.1827-0.02871 0.28847-0.08648l3.2379-1.7021 3.2382 1.7021c0.10108 0.05769 0.19721 0.08648 0.28838 0.08648 0.09639 0 0.1696-0.03471 0.22005-0.10454 0.05037-0.06977 0.07559-0.15508 0.07559-0.25608 0-0.06249-0.0024-0.11055-0.0073-0.14427l-0.62023-3.6058 2.6178-2.5529c0.12518-0.12499 0.18758-0.24041 0.18758-0.34618z" color="#363636" fill="#363636"/>
</svg>
